src/components/00-materials/images-raw/Tablet.svg

<svg width="96" height="96" viewBox="0 0 96 96" fill="none" xmlns="http://www.w3.org/2000/svg">
<path d="M13 28L13 77C13 79.2091 14.7909 81 17 81H79C81.2091 81 83 79.2091 83 77V28C83 25.7909 81.2091 24 79 24L17 24C14.7909 24 13 25.7909 13 28Z" stroke="#00008F" stroke-width="2" stroke-linecap="round" stroke-linejoin="round"/>
<path d="M78 48.71V57.86M73 24V80V24ZM23 24V80V24Z" stroke="#00008F" stroke-width="2" stroke-linecap="round" stroke-linejoin="round"/>
</svg>

<svg width="96" height="96" viewBox="0 0 96 96" fill="none" xmlns="http://www.w3.org/2000/svg"><path d="M13 28v49a4 4 0 004 4h62a4 4 0 004-4V28a4 4 0 00-4-4H17a4 4 0 00-4 4zM78 48.71v9.15M73 24v56-56zm-50 0v56-56z" stroke="#00008F" stroke-width="2" stroke-linecap="round" stroke-linejoin="round"/></svg>
